X: 10151
T: Dingieshowe Dancers, The
R: reel
M: 4/4
K: Gmajor
G3B d2 BG|d2 BG c2 AF|GABG c2 Bc|d3B A2 F2|
G3B d2 BG|d2 BG c2 AF|GABG c2 Bc|dBcA G3d||
gdgd e2 dc|BGAF GFED|G2 AB c2 Bc|d3B A2 Bd|
gdgd e2 dc|BGAF GFED|G2 AB c2 Bc|dBcA G3d||
BdcA BDAD|GD D2 FGAc|BAGA BdBG|c3B A2 Bc|
BdcA BDAD|GD D2 FGAc|BAGA Bddc|dBcA G3B||
dGGd GGdG|cGGc GGcG|dGGd GGdG|c2 dB ADFA|
dGGd GGdG|cGGc GGcG|dGGB G2 BG|c2 AF G4||

